X:155
T:The Maids of Mitchelstown                                                                         
M:C                                                                                                 
K:EDor                                                                                              
E2BA FA A2|B2AB dBAF|E2BA FA A2|BdAF FEDF:|                                                         
FABc d2cA|Beef g2fe|dBAF  G3A|(3Bcd ce dBAF:|
